X: 29909
T: O'Rourke's
R: reel
M: 4/4
K: Dmajor
|:AG|FGAF DEFD|EA A2 ABAG|FGAF DEFD|(3Bcd ec dBAG|
F3A D3F|EA A2 ABAG|FD D2 DEFA|1 (3Bcd ec d2 d2:|2 (3Bcd ec d3g||
|:fddc dfaf|edcd efge|fddc dfag|faeg fdde|
fddc dfaf|edcd efge|fdef gbag|fdec dBAG:|

